X:1

T:Basket of Oysters, The [2]

M:6/8

L:1/8

R:Jig

S:Levey – Dance Music of Ireland, 2nd Collection (1873)

Z:AK/Fiddler’s Companion

K:D

A | d>dd def | e2d c2c | (d2c) Bcd | c2^A F2c | d>dd def | e2d cde |

d2B c2^A | B3B2 || B | (A2F) FEF | A2F F2B | (A2F) FEF |

D2B, B,2B | (A2F) FEF | A2F F2d | dcB (c2^A) | B3 B2 ||

